X: 126009
T: O'ER THE HILLS AND FAR AWAY
%R: reel
B: James Kerr "Merry Melodies" v.1 p.26 s.0 #9
Z: 2017 John Chambers <jc:trillian.mit.edu>
M: 2/4
L: 1/16
K: D
(fe) |\
d3e defe | d2B2B2 (AB) |\
d3e defa | g2e2e2A2 |\
d3e defe | d2B2 d3B |\
A2(AB) ABde | f2e2e2 :|
|: (fg) |\
a2(ag) fgfe | d2B2B2 (fg) |\
a2(af) gfed | f2e2e2 (fg) |\
abag fgfe | d2B2 g3B |\
A2(AB) ABde | f2e2e2 :|

%%sep 1 1 500
%%sep 1 1 500

